; HEADER_BLOCK_START
; generated by OrcaSlicer 2.3.0 on 2025-07-12 at 15:00:12
; total layer number: 51
;_GP_TOTAL_LAYER_NUMBER_PLACEHOLDER
; filament_density: 1.04
; filament_diameter: 1.75
; max_z_height: 8.00
; HEADER_BLOCK_END

; THUMBNAIL_BLOCK_START

;
; THUMBNAIL_BLOCK_END

; THUMBNAIL_BLOCK_START

;
; THUMBNAIL_BLOCK_END

; external perimeters extrusion width = 0.42mm
; perimeters extrusion width = 0.45mm
; infill extrusion width = 0.45mm
; solid infill extrusion width = 0.42mm
; top infill extrusion width = 0.42mm
; support material extrusion width = 0.42mm
; first layer extrusion width = 0.50mm

; EXECUTABLE_BLOCK_START
EXCLUDE_OBJECT_DEFINE NAME=pieza_de_cremallera_2.obj_id_0_copy_0 CENTER=110,110 POLYGON=[[72,106],[148,106],[148,114],[72,114],[72,106]]
M73 P0 R17
M106 S0
M106 P2 S0
;TYPE:Custom
M140 S0
M104 S0 
START_PRINT EXTRUDER_TEMP=280 BED_TEMP=100
G90
G21
M83 ; use relative distances for extrusion
; Filament gcode
M106 S0
M106 P2 S0
;LAYER_CHANGE
;Z:0.2
;HEIGHT:0.2
;BEFORE_LAYER_CHANGE
;0.2
G92 E0

G1 E-.6 F2400
;_SET_FAN_SPEED_CHANGING_LAYER
SET_VELOCITY_LIMIT ACCEL=500 ACCEL_TO_DECEL=250
SET_VELOCITY_LIMIT SQUARE_CORNER_VELOCITY=9
EXCLUDE_OBJECT_START NAME=pieza_de_cremallera_2.obj_id_0_copy_0
G1 Z.4 F30000
G1 X72.974 Y104.246
G1 Z.4
G1 Z.2
G1 E.6 F2400
;TYPE:Support interface
;WIDTH:0.42
G1 F3600
G1 X72.598 Y104.246 E.0118
G1 X72.598 Y115.754 E.36084
G1 X73.163 Y115.754 E.01771
G1 X73.163 Y104.246 E.36084
G1 X73.851 Y104.246 E.02159
G1 X75.105 Y104.246 F30000
G1 F3600
G1 X75.475 Y104.246 E.01159
G1 X75.475 Y105.461 E.03812
G1 X75.103 Y105.461 E.01168
G1 X74.341 Y105.611 F30000
G1 F3600
G1 X74.773 Y105.611 E.01355
G1 X74.917 Y105.468 E.00636
G1 X74.917 Y104.246 E.03832
G1 X74.04 Y104.246 E.0275
G1 X74.04 Y115.754 E.36084
G1 X74.917 Y115.754 E.0275
G1 X74.917 Y114.532 E.03832
G1 X74.773 Y114.389 E.00636
G1 X74.341 Y114.389 E.01355
G1 X74.697 Y113.95 F30000
;TYPE:Support
;WIDTH:0.5
G1 F3600
G1 X74.531 Y113.95 E.0063
G1 X74.531 Y112.85 E.0418
G1 X74.697 Y112.85 E.0063
G1 X74.697 Y113.881 E.03919
G1 X75.103 Y114.539 F30000
;TYPE:Support interface
;WIDTH:0.42
G1 F3600
G1 X75.475 Y114.539 E.01168
G1 X75.475 Y115.754 E.03812
G1 X75.105 Y115.754 E.01159
;WIPE_START
G1 X75.475 Y115.754 E-.1133
G1 X75.475 Y114.539 E-.37256
G1 X75.103 Y114.539 E-.11414
;WIPE_END
G1 Z.4 F30000
G1 X81.633 Y113.294 Z.4
G1 Z.2
G1 E.6 F2400
;TYPE:Support
;WIDTH:0.5
G1 F3600
G1 X81.861 Y113.449 E.01049
G1 X82.938 Y113.449 E.04093
G1 X83.167 Y113.294 E.01049
G1 X83.168 Y113.292 E.00011
G1 X83.168 Y117.693 E.16726
G1 X73.914 Y117.693 E.35171
G1 X73.914 Y116.193 E.057
G1 X75.914 Y116.193 E.07601
G1 X75.914 Y114.45 E.06624
G1 X80.186 Y114.45 E.16239
G1 X80.45 Y114.186 E.01417
G1 X80.45 Y111.449 E.10403
G1 X80.895 Y111.449 E.0169
G1 X81.607 Y113.231 E.07293
G1 X82.575 Y117.487 F30000
G1 F3600
G1 X82.575 Y113.861 E.13782
G1 X82.067 Y113.861 E.0193
G1 X82.067 Y117.281 E.13001
G1 X81.56 Y117.281 E.0193
G1 X81.56 Y113.742 E.13452
G1 X81.298 Y113.564 E.01202
G1 X81.052 Y112.95 E.02516
G1 X81.052 Y117.281 E.16463
G1 X80.544 Y117.281 E.0193
G1 X80.544 Y114.674 E.09908
G1 X80.357 Y114.861 E.01005
G1 X80.036 Y114.861 E.0122
G1 X80.036 Y117.281 E.09197
G1 X79.528 Y117.281 E.0193
G1 X79.528 Y114.861 E.09197
G1 X79.02 Y114.861 E.0193
G1 X79.02 Y117.281 E.09197
G1 X78.512 Y117.281 E.0193
G1 X78.512 Y114.861 E.09197
G1 X78.004 Y114.861 E.0193
G1 X78.004 Y117.281 E.09197
G1 X77.497 Y117.281 E.0193
G1 X77.497 Y114.861 E.09197
G1 X76.989 Y114.861 E.0193
G1 X76.989 Y117.281 E.09197
G1 X76.481 Y117.281 E.0193
G1 X76.481 Y114.861 E.09197
G1 X76.325 Y114.861 E.00592
G1 X76.325 Y116.604 E.06624
G1 X75.973 Y116.604 E.01338
G1 X75.973 Y117.281 E.02573
G1 X75.465 Y117.281 E.0193
G1 X75.465 Y116.604 E.02573
G1 X74.957 Y116.604 E.0193
G1 X74.957 Y117.281 E.02573
G1 X74.449 Y117.281 E.0193
G1 X74.449 Y116.398 E.03355
;WIPE_START
G1 X74.449 Y117.281 E-.26482
G1 X74.957 Y117.281 E-.15236
G1 X74.957 Y116.672 E-.18282
;WIPE_END
G1 Z.4 F30000
G1 X74.697 Y107.15 Z.4
G1 Z.2
G1 E.6 F2400
G1 F3600
G1 X74.531 Y107.15 E.0063
G1 X74.531 Y106.05 E.0418
G1 X74.697 Y106.05 E.0063
G1 X74.697 Y107.081 E.03919
;WIPE_START
G1 X74.697 Y106.05 E-.30938
G1 X74.531 Y106.05 E-.04974
G1 X74.531 Y106.853 E-.24089
;WIPE_END
G1 Z.4 F30000
G1 X139.233 Y113.294 Z.4
G1 Z.2
G1 E.6 F2400
G1 F3600
G1 X139.461 Y113.449 E.01047
G1 X139.55 Y113.449 E.0034
G1 X139.55 Y114.186 E.02802
G1 X139.814 Y114.45 E.01417
G1 X144.086 Y114.45 E.16239
G1 X144.086 Y116.193 E.06624
G1 X146.086 Y116.193 E.07601
G1 X146.086 Y117.693 E.057
G1 X136.832 Y117.693 E.35171
G1 X136.832 Y113.449 E.16128
G1 X137.338 Y113.449 E.01922
G1 X137.567 Y113.294 E.01049
G1 X138.304 Y111.449 E.07552
G1 X138.495 Y111.449 E.00724
G1 X139.207 Y113.231 E.07292
;WIPE_START
G1 X138.495 Y111.449 E-.57558
G1 X138.413 Y111.449 E-.02442
;WIPE_END
G1 Z.4 F30000
G1 X145.551 Y117.487 Z.4
G1 Z.2
G1 E.6 F2400
G1 F3600
G1 X145.551 Y116.604 E.03355
G1 X145.043 Y116.604 E.0193
G1 X145.043 Y117.281 E.02573
G1 X144.535 Y117.281 E.0193
G1 X144.535 Y116.604 E.02573
G1 X144.027 Y116.604 E.0193
M73 P1 R17
G1 X144.027 Y117.281 E.02573
G1 X143.519 Y117.281 E.0193
G1 X143.519 Y114.861 E.09197
G1 X143.011 Y114.861 E.0193
G1 X143.011 Y117.281 E.09197
G1 X142.503 Y117.281 E.0193
G1 X142.503 Y114.861 E.09197
G1 X141.996 Y114.861 E.0193
G1 X141.996 Y117.281 E.09197
G1 X141.488 Y117.281 E.0193
G1 X141.488 Y114.861 E.09197
G1 X140.98 Y114.861 E.0193
G1 X140.98 Y117.281 E.09197
G1 X140.472 Y117.281 E.0193
G1 X140.472 Y114.861 E.09197
G1 X139.964 Y114.861 E.0193
G1 X139.964 Y117.281 E.09197
G1 X139.456 Y117.281 E.0193
G1 X139.456 Y114.674 E.09908
G1 X139.139 Y114.357 E.01707
G1 X139.139 Y113.728 E.02391
G1 X138.948 Y113.599 E.00874
G1 X138.948 Y117.281 E.13997
G1 X138.44 Y117.281 E.0193
G1 X138.44 Y112.422 E.18469
G1 X138.399 Y112.319 E.00421
G1 X137.933 Y113.487 E.04781
G1 X137.933 Y117.281 E.1442
G1 X137.425 Y117.281 E.0193
G1 X137.425 Y113.639 E.13843
;WIPE_START
G1 X137.425 Y115.639 E-.6
;WIPE_END
G1 Z.4 F30000
G1 X144.897 Y114.539 Z.4
G1 Z.2
G1 E.6 F2400
;TYPE:Support interface
;WIDTH:0.42
G1 F3600
G1 X144.525 Y114.539 E.01168
G1 X144.525 Y115.754 E.03812
G1 X145.083 Y115.754 E.0175
G1 X145.083 Y114.532 E.03833
G1 X145.226 Y114.389 E.00635
G1 X145.659 Y114.389 E.01355
G1 X145.469 Y113.95 F30000
;TYPE:Support
;WIDTH:0.5
G1 F3600
G1 X145.303 Y113.95 E.00628
G1 X145.303 Y112.85 E.0418
G1 X145.469 Y112.85 E.00628
G1 X145.469 Y113.881 E.03919
;WIPE_START
G1 X145.469 Y112.85 E-.30938
G1 X145.303 Y112.85 E-.04959
G1 X145.303 Y113.654 E-.24103
;WIPE_END
G1 Z.4 F30000
G1 X147.026 Y115.754 Z.4
G1 Z.2
G1 E.6 F2400
;TYPE:Support interface
;WIDTH:0.42
G1 F3600
G1 X147.402 Y115.754 E.0118
G1 X147.402 Y104.246 E.36084
G1 X146.837 Y104.246 E.01771
G1 X146.837 Y115.754 E.36084
G1 X145.96 Y115.754 E.0275
G1 X145.96 Y104.246 E.36084
G1 X145.083 Y104.246 E.0275
G1 X145.083 Y105.468 E.03833
G1 X145.076 Y105.461 E.0003
G1 X144.525 Y105.461 E.01729
G1 X144.525 Y104.246 E.03812
G1 X144.895 Y104.246 E.01159
G1 X146.086 Y103.807 F30000
;TYPE:Support
;WIDTH:0.5
G1 F3600
G1 X144.086 Y103.807 E.07601
G1 X144.086 Y105.55 E.06624
G1 X75.914 Y105.55 E2.59099
G1 X75.914 Y103.807 E.06624
G1 X73.914 Y103.807 E.07601
G1 X73.914 Y102.307 E.057
G1 X146.086 Y102.307 E2.74302
G1 X146.086 Y103.739 E.0544
G1 X145.551 Y103.602 F30000
G1 F3600
G1 X145.551 Y102.719 E.03355
G1 X145.043 Y102.719 E.0193
G1 X145.043 Y103.396 E.02573
G1 X144.535 Y103.396 E.0193
G1 X144.535 Y102.719 E.02573
G1 X144.027 Y102.719 E.0193
G1 X144.027 Y103.396 E.02573
G1 X143.675 Y103.396 E.01338
G1 X143.675 Y105.139 E.06624
G1 X143.519 Y105.139 E.00592
G1 X143.519 Y102.719 E.09197
G1 X143.011 Y102.719 E.0193
G1 X143.011 Y105.139 E.09197
G1 X142.503 Y105.139 E.0193
G1 X142.503 Y102.719 E.09197
G1 X141.996 Y102.719 E.0193
G1 X141.996 Y105.139 E.09197
G1 X141.488 Y105.139 E.0193
G1 X141.488 Y102.719 E.09197
G1 X140.98 Y102.719 E.0193
G1 X140.98 Y105.139 E.09197
G1 X140.472 Y105.139 E.0193
G1 X140.472 Y102.719 E.09197
G1 X139.964 Y102.719 E.0193
G1 X139.964 Y105.139 E.09197
G1 X139.456 Y105.139 E.0193
G1 X139.456 Y102.719 E.09197
G1 X138.948 Y102.719 E.0193
G1 X138.948 Y105.139 E.09197
G1 X138.44 Y105.139 E.0193
G1 X138.44 Y102.719 E.09197
G1 X137.933 Y102.719 E.0193
G1 X137.933 Y105.139 E.09197
G1 X137.425 Y105.139 E.0193
G1 X137.425 Y102.719 E.09197
G1 X136.917 Y102.719 E.0193
G1 X136.917 Y105.139 E.09197
G1 X136.409 Y105.139 E.0193
G1 X136.409 Y102.719 E.09197
G1 X135.901 Y102.719 E.0193
G1 X135.901 Y105.139 E.09197
G1 X135.393 Y105.139 E.0193
G1 X135.393 Y102.719 E.09197
G1 X134.885 Y102.719 E.0193
M73 P2 R17
G1 X134.885 Y105.139 E.09197
G1 X134.378 Y105.139 E.0193
G1 X134.378 Y102.719 E.09197
G1 X133.87 Y102.719 E.0193
G1 X133.87 Y105.139 E.09197
G1 X133.362 Y105.139 E.0193
G1 X133.362 Y102.719 E.09197
G1 X132.854 Y102.719 E.0193
G1 X132.854 Y105.139 E.09197
G1 X132.346 Y105.139 E.0193
G1 X132.346 Y102.719 E.09197
G1 X131.838 Y102.719 E.0193
G1 X131.838 Y105.139 E.09197
G1 X131.33 Y105.139 E.0193
G1 X131.33 Y102.719 E.09197
G1 X130.823 Y102.719 E.0193
G1 X130.823 Y105.139 E.09197
G1 X130.315 Y105.139 E.0193
G1 X130.315 Y102.719 E.09197
G1 X129.807 Y102.719 E.0193
G1 X129.807 Y105.139 E.09197
G1 X129.299 Y105.139 E.0193
G1 X129.299 Y102.719 E.09197
G1 X128.791 Y102.719 E.0193
G1 X128.791 Y105.139 E.09197
G1 X128.283 Y105.139 E.0193
G1 X128.283 Y102.719 E.09197
G1 X127.775 Y102.719 E.0193
G1 X127.775 Y105.139 E.09197
G1 X127.267 Y105.139 E.0193
G1 X127.267 Y102.719 E.09197
G1 X126.76 Y102.719 E.0193
G1 X126.76 Y105.139 E.09197
G1 X126.252 Y105.139 E.0193
G1 X126.252 Y102.719 E.09197
G1 X125.744 Y102.719 E.0193
G1 X125.744 Y105.139 E.09197
G1 X125.236 Y105.139 E.0193
G1 X125.236 Y102.719 E.09197
G1 X124.728 Y102.719 E.0193
G1 X124.728 Y105.139 E.09197
G1 X124.22 Y105.139 E.0193
G1 X124.22 Y102.719 E.09197
G1 X123.712 Y102.719 E.0193
G1 X123.712 Y105.139 E.09197
G1 X123.205 Y105.139 E.0193
G1 X123.205 Y102.719 E.09197
G1 X122.697 Y102.719 E.0193
G1 X122.697 Y105.139 E.09197
G1 X122.189 Y105.139 E.0193
G1 X122.189 Y102.719 E.09197
G1 X121.681 Y102.719 E.0193
G1 X121.681 Y105.139 E.09197
G1 X121.173 Y105.139 E.0193
G1 X121.173 Y102.719 E.09197
G1 X120.665 Y102.719 E.0193
G1 X120.665 Y105.139 E.09197
G1 X120.157 Y105.139 E.0193
G1 X120.157 Y102.719 E.09197
G1 X119.649 Y102.719 E.0193
G1 X119.649 Y105.139 E.09197
G1 X119.142 Y105.139 E.0193
G1 X119.142 Y102.719 E.09197
G1 X118.634 Y102.719 E.0193
G1 X118.634 Y105.139 E.09197
G1 X118.126 Y105.139 E.0193
G1 X118.126 Y102.719 E.09197
G1 X117.618 Y102.719 E.0193
G1 X117.618 Y105.139 E.09197
G1 X117.11 Y105.139 E.0193
G1 X117.11 Y102.719 E.09197
G1 X116.602 Y102.719 E.0193
G1 X116.602 Y105.139 E.09197
G1 X116.094 Y105.139 E.0193
G1 X116.094 Y102.719 E.09197
G1 X115.587 Y102.719 E.0193
G1 X115.587 Y105.139 E.09197
G1 X115.079 Y105.139 E.0193
G1 X115.079 Y102.719 E.09197
G1 X114.571 Y102.719 E.0193
G1 X114.571 Y105.139 E.09197
G1 X114.063 Y105.139 E.0193
G1 X114.063 Y102.719 E.09197
G1 X113.555 Y102.719 E.0193
G1 X113.555 Y105.139 E.09197
G1 X113.047 Y105.139 E.0193
G1 X113.047 Y102.719 E.09197
G1 X112.539 Y102.719 E.0193
G1 X112.539 Y105.139 E.09197
G1 X112.031 Y105.139 E.0193
G1 X112.031 Y102.719 E.09197
G1 X111.524 Y102.719 E.0193
G1 X111.524 Y105.139 E.09197
G1 X111.016 Y105.139 E.0193
G1 X111.016 Y102.719 E.09197
G1 X110.508 Y102.719 E.0193
G1 X110.508 Y105.139 E.09197
G1 X110 Y105.139 E.0193
G1 X110 Y102.719 E.09197
G1 X109.492 Y102.719 E.0193
G1 X109.492 Y105.139 E.09197
G1 X108.984 Y105.139 E.0193
G1 X108.984 Y102.719 E.09197
G1 X108.476 Y102.719 E.0193
G1 X108.476 Y105.139 E.09197
G1 X107.969 Y105.139 E.0193
G1 X107.969 Y102.719 E.09197
G1 X107.461 Y102.719 E.0193
G1 X107.461 Y105.139 E.09197
G1 X106.953 Y105.139 E.0193
G1 X106.953 Y102.719 E.09197
G1 X106.445 Y102.719 E.0193
G1 X106.445 Y105.139 E.09197
G1 X105.937 Y105.139 E.0193
G1 X105.937 Y102.719 E.09197
G1 X105.429 Y102.719 E.0193
G1 X105.429 Y105.139 E.09197
G1 X104.921 Y105.139 E.0193
G1 X104.921 Y102.719 E.09197
G1 X104.413 Y102.719 E.0193
G1 X104.413 Y105.139 E.09197
G1 X103.906 Y105.139 E.0193
G1 X103.906 Y102.719 E.09197
G1 X103.398 Y102.719 E.0193
G1 X103.398 Y105.139 E.09197
G1 X102.89 Y105.139 E.0193
G1 X102.89 Y102.719 E.09197
G1 X102.382 Y102.719 E.0193
G1 X102.382 Y105.139 E.09197
G1 X101.874 Y105.139 E.0193
G1 X101.874 Y102.719 E.09197
G1 X101.366 Y102.719 E.0193
G1 X101.366 Y105.139 E.09197
G1 X100.858 Y105.139 E.0193
G1 X100.858 Y102.719 E.09197
G1 X100.351 Y102.719 E.0193
G1 X100.351 Y105.139 E.09197
G1 X99.843 Y105.139 E.0193
G1 X99.843 Y102.719 E.09197
G1 X99.335 Y102.719 E.0193
G1 X99.335 Y105.139 E.09197
G1 X98.827 Y105.139 E.0193
G1 X98.827 Y102.719 E.09197
G1 X98.319 Y102.719 E.0193
G1 X98.319 Y105.139 E.09197
M73 P3 R17
G1 X97.811 Y105.139 E.0193
G1 X97.811 Y102.719 E.09197
G1 X97.303 Y102.719 E.0193
G1 X97.303 Y105.139 E.09197
G1 X96.795 Y105.139 E.0193
G1 X96.795 Y102.719 E.09197
G1 X96.288 Y102.719 E.0193
G1 X96.288 Y105.139 E.09197
G1 X95.78 Y105.139 E.0193
G1 X95.78 Y102.719 E.09197
G1 X95.272 Y102.719 E.0193
G1 X95.272 Y105.139 E.09197
G1 X94.764 Y105.139 E.0193
G1 X94.764 Y102.719 E.09197
G1 X94.256 Y102.719 E.0193
G1 X94.256 Y105.139 E.09197
G1 X93.748 Y105.139 E.0193
G1 X93.748 Y102.719 E.09197
G1 X93.24 Y102.719 E.0193
G1 X93.24 Y105.139 E.09197
G1 X92.733 Y105.139 E.0193
G1 X92.733 Y102.719 E.09197
G1 X92.225 Y102.719 E.0193
G1 X92.225 Y105.139 E.09197
G1 X91.717 Y105.139 E.0193
G1 X91.717 Y102.719 E.09197
G1 X91.209 Y102.719 E.0193
G1 X91.209 Y105.139 E.09197
G1 X90.701 Y105.139 E.0193
G1 X90.701 Y102.719 E.09197
G1 X90.193 Y102.719 E.0193
G1 X90.193 Y105.139 E.09197
G1 X89.685 Y105.139 E.0193
G1 X89.685 Y102.719 E.09197
G1 X89.177 Y102.719 E.0193
G1 X89.177 Y105.139 E.09197
G1 X88.67 Y105.139 E.0193
G1 X88.67 Y102.719 E.09197
G1 X88.162 Y102.719 E.0193
G1 X88.162 Y105.139 E.09197
G1 X87.654 Y105.139 E.0193
G1 X87.654 Y102.719 E.09197
G1 X87.146 Y102.719 E.0193
G1 X87.146 Y105.139 E.09197
G1 X86.638 Y105.139 E.0193
G1 X86.638 Y102.719 E.09197
G1 X86.13 Y102.719 E.0193
G1 X86.13 Y105.139 E.09197
G1 X85.622 Y105.139 E.0193
G1 X85.622 Y102.719 E.09197
G1 X85.115 Y102.719 E.0193
G1 X85.115 Y105.139 E.09197
G1 X84.607 Y105.139 E.0193
G1 X84.607 Y102.719 E.09197
G1 X84.099 Y102.719 E.0193
G1 X84.099 Y105.139 E.09197
G1 X83.591 Y105.139 E.0193
G1 X83.591 Y102.719 E.09197
G1 X83.083 Y102.719 E.0193
G1 X83.083 Y105.139 E.09197
G1 X82.575 Y105.139 E.0193
G1 X82.575 Y102.719 E.09197
G1 X82.067 Y102.719 E.0193
G1 X82.067 Y105.139 E.09197
G1 X81.56 Y105.139 E.0193
M73 P3 R16
G1 X81.56 Y102.719 E.09197
G1 X81.052 Y102.719 E.0193
G1 X81.052 Y105.139 E.09197
G1 X80.544 Y105.139 E.0193
G1 X80.544 Y102.719 E.09197
G1 X80.036 Y102.719 E.0193
G1 X80.036 Y105.139 E.09197
G1 X79.528 Y105.139 E.0193
G1 X79.528 Y102.719 E.09197
G1 X79.02 Y102.719 E.0193
G1 X79.02 Y105.139 E.09197
G1 X78.512 Y105.139 E.0193
G1 X78.512 Y102.719 E.09197
G1 X78.004 Y102.719 E.0193
G1 X78.004 Y105.139 E.09197
G1 X77.497 Y105.139 E.0193
G1 X77.497 Y102.719 E.09197
G1 X76.989 Y102.719 E.0193
G1 X76.989 Y105.139 E.09197
G1 X76.481 Y105.139 E.0193
G1 X76.481 Y102.719 E.09197
G1 X75.973 Y102.719 E.0193
G1 X75.973 Y103.396 E.02573
G1 X75.465 Y103.396 E.0193
G1 X75.465 Y102.719 E.02573
G1 X74.957 Y102.719 E.0193
G1 X74.957 Y103.396 E.02573
G1 X74.449 Y103.396 E.0193
G1 X74.449 Y102.513 E.03355
;WIPE_START
G1 X74.449 Y103.396 E-.26482
G1 X74.957 Y103.396 E-.15236
G1 X74.957 Y102.786 E-.18282
;WIPE_END
G1 Z.4 F30000
G1 X145.469 Y106.05 Z.4
G1 Z.2
G1 E.6 F2400
G1 F3600
G1 X145.469 Y107.15 E.0418
G1 X145.303 Y107.15 E.00628
G1 X145.303 Y106.05 E.0418
G1 X145.4 Y106.05 E.00368
;WIPE_START
G1 X145.303 Y106.05 E-.02902
G1 X145.303 Y107.15 E-.32995
G1 X145.469 Y107.15 E-.04959
G1 X145.469 Y106.512 E-.19145
;WIPE_END
G1 Z.4 F30000
G1 X82.545 Y110.252 Z.4
G1 Z.2
G1 E.6 F2400
;TYPE:Inner wall
;WIDTH:0.499999
G1 F3600
G1 X82.4 Y110.462 E.00969
G1 X82.376 Y110.403 E.00239
G1 X82.041 Y109.945 E.02156
G1 X81.82 Y109.803 E.01001
G1 X81.315 Y109.685 E.0197
G1 X79.829 Y109.685 E.05651
G1 X79.397 Y109.77 E.0167
G1 X79.052 Y109.989 E.01555
