; HEADER_BLOCK_START
; generated by OrcaSlicer 2.3.0 on 2025-07-18 at 16:31:17
; total layer number: 40
;_GP_TOTAL_LAYER_NUMBER_PLACEHOLDER
; filament_density: 1.27
; filament_diameter: 1.75
; max_z_height: 8.00
; HEADER_BLOCK_END

; THUMBNAIL_BLOCK_START

;
; THUMBNAIL_BLOCK_END

; THUMBNAIL_BLOCK_START

;
; THUMBNAIL_BLOCK_END

; external perimeters extrusion width = 0.45mm
; perimeters extrusion width = 0.45mm
; infill extrusion width = 0.45mm
; solid infill extrusion width = 0.45mm
; top infill extrusion width = 0.40mm
; first layer extrusion width = 0.42mm

; EXECUTABLE_BLOCK_START
M73 P0 R26
M201 X500 Y500 Z100 E5000
M203 X500 Y500 Z10 E60
M204 P500 R1000 T500
M205 X8.00 Y8.00 Z0.40 E5.00 ; sets the jerk limits, mm/sec
;TYPE:Custom
G90 ; use absolute coordinates
M83 ; extruder relative mode
M104 S150 ; set temporary nozzle temp to prevent oozing during homing
M140 S80 ; set final bed temp
G4 S30 ; allow partial nozzle warmup
G28 ; home all axis and restore leveling
G1 Z50 F240
G1 X2.0 Y10 F3000
M104 S255 ; set final nozzle temp
M190 S80 ; wait for bed temp to stabilize
M109 S255 ; wait for nozzle temp to stabilize
G1 Z0.28 F240
G92 E0
G1 X2.0 Y140 E10 F1500 ; prime the nozzle
M73 P1 R26
G1 X2.3 Y140 F5000
G92 E0
G1 X2.3 Y10 E10 F1200 ; prime the nozzle
G92 E0
G90
G21
M83 ; use relative distances for extrusion
; filament start gcode
M106 S0
;LAYER_CHANGE
;Z:0.2
;HEIGHT:0.2
;BEFORE_LAYER_CHANGE
;0.2
G92 E0

G1 E-.8 F1800
M73 P2 R26
;_SET_FAN_SPEED_CHANGING_LAYER
G1 Z.6 F9000
G1 X91.575 Y91.665
G1 Z.6
G1 Z.2
G1 E.8 F1800
;TYPE:Skirt
;WIDTH:0.42
G1 F3000
G1 X92.252 Y91.059 E.02706
G1 X93.368 Y90.803 E.03412
G1 X126.632 Y90.803 E.9908
G1 X127.995 Y91.195 E.04226
G1 X128.941 Y92.252 E.04226
G1 X129.197 Y93.368 E.03412
G1 X129.197 Y122.632 E.87165
G1 X129.108 Y123.663 E.03085
G1 X128.782 Y124.907 E.03829
G1 X128.22 Y126.063 E.03829
G1 X127.443 Y127.088 E.03829
G1 X126.481 Y127.941 E.03829
G1 X125.372 Y128.59 E.03829
G1 X124.157 Y129.01 E.03829
G1 X122.632 Y129.197 E.04577
G1 X97.579 Y129.197 E.74623
G1 X95.765 Y128.446 E.05849
G1 X91.554 Y124.235 E.17737
G1 X90.803 Y122.421 E.05849
G1 X90.803 Y93.368 E.86538
G1 X91.195 Y92.005 E.04226
G1 X91.545 Y91.691 E.014
G1 X91.762 Y91.971 F9000
G1 F3000
G1 X92.604 Y91.318 E.03173
G1 X93.368 Y91.18 E.02315
G1 X126.632 Y91.18 E.9908
G1 X127.88 Y91.571 E.03896
G1 X128.682 Y92.604 E.03896
G1 X128.82 Y93.368 E.02315
G1 X128.82 Y122.632 E.87165
G1 X128.733 Y123.626 E.02975
G1 X128.421 Y124.798 E.0361
G1 X127.888 Y125.886 E.0361
G1 X127.152 Y126.848 E.0361
G1 X126.242 Y127.649 E.0361
G1 X125.194 Y128.257 E.0361
G1 X124.047 Y128.649 E.0361
G1 X122.632 Y128.82 E.04247
G1 X97.579 Y128.82 E.74623
G1 X96.031 Y128.179 E.04989
G1 X91.821 Y123.969 E.17737
G1 X91.18 Y122.421 E.04989
G1 X91.18 Y93.368 E.86538
G1 X91.571 Y92.12 E.03896
G1 X91.731 Y91.996 E.00604
; printing object beam_frame_5_x_7 (5).stl id:9223583144064128783 copy 0
G1 E-.2 F1800
;WIPE_START
G1 F3000
G1 X92.521 Y91.382 E-.6
;WIPE_END
G1 Z.6 F9000
G1 X125.957 Y120.326 Z.6
G1 Z.2
G1 E.8 F1800
;TYPE:Inner wall
;WIDTH:0.419999
G1 F900
G1 X125.459 Y119.727 E.02322
G1 X124.837 Y119.231 E.02368
G1 X124.132 Y118.866 E.02367
G1 X123.368 Y118.645 E.02367
G1 X122.576 Y118.578 E.02367
G1 X121.786 Y118.667 E.02367
G1 X121.029 Y118.908 E.02367
G1 X120.334 Y119.292 E.02367
M73 P2 R25
G1 X119.726 Y119.805 E.02367
G1 X119.231 Y120.426 E.02367
G1 X118.866 Y121.132 E.02367
G1 X118.645 Y121.895 E.02367
G1 X118.578 Y122.687 E.02367
G1 X118.667 Y123.477 E.02367
G1 X118.908 Y124.234 E.02367
G1 X119.292 Y124.93 E.02368
G1 X119.809 Y125.54 E.02382
G1 X120.319 Y125.951 E.0195
G1 X108.093 Y125.958 E.36415
G1 X108.694 Y125.459 E.02327
G1 X109.191 Y124.837 E.02368
G1 X109.556 Y124.132 E.02367
G1 X109.776 Y123.368 E.02367
G1 X109.843 Y122.576 E.02367
G1 X109.754 Y121.786 E.02367
G1 X109.513 Y121.029 E.02367
G1 X109.129 Y120.333 E.02368
G1 X108.612 Y119.723 E.02382
G1 X108.12 Y119.326 E.01883
G1 X118.753 Y119.319 E.31673
G1 X119.112 Y119.19 E.01136
M73 P3 R25
G1 X119.19 Y119.112 E.0033
G1 X119.319 Y118.753 E.01135
G1 X119.319 Y96.923 E.65023
G1 X119.206 Y96.697 E.00753
G1 X119.019 Y96.537 E.00731
G1 X118.753 Y96.471 E.00817
G1 X96.955 Y96.471 E.64929
G1 X96.636 Y96.636 E.0107
G1 X96.517 Y96.812 E.00631
G1 X96.471 Y97.036 E.00683
G1 X96.471 Y118.834 E.64929
G1 X96.636 Y119.153 E.0107
G1 X96.812 Y119.272 E.00632
G1 X97.036 Y119.319 E.00683
G1 X103.486 Y119.305 E.19212
G1 X102.884 Y119.805 E.0233
G1 X102.388 Y120.426 E.02368
G1 X102.023 Y121.132 E.02367
G1 X101.803 Y121.895 E.02367
G1 X101.736 Y122.687 E.02367
G1 X101.803 Y123.368 E.02038
G1 X102.066 Y124.234 E.02696
G1 X102.45 Y124.93 E.02368
G1 X102.967 Y125.54 E.02382
G1 X103.474 Y125.948 E.01938
G1 X98.266 Y125.945 E.15511
G1 X98.266 Y122.858 E.09196
G1 X98.249 Y122.161 E.02075
G1 X98.108 Y121.908 E.00862
G1 X97.931 Y121.783 E.00646
G1 X97.7 Y121.734 E.00702
G1 X94.056 Y121.734 E.10857
G1 X94.056 Y94.056 E.82445
G1 X125.944 Y94.056 E.94986
G1 X125.957 Y120.286 E.78132
;WIPE_START
G1 X125.459 Y119.727 E-.59938
G1 X125.263 Y119.57 E-.20062
;WIPE_END
G1 Z.6 F9000
G1 X97.836 Y122.169 Z.6
G1 Z.2
G1 E.8 F1800
;TYPE:Outer wall
G1 F900
G1 X97.7 Y122.111 E.0044
G1 X93.678 Y122.111 E.1198
G1 X93.678 Y93.678 E.84691
G1 X126.322 Y93.678 E.97233
G1 X126.322 Y119.16 E.759
M73 P4 R25
G1 X126.335 Y120.482 E.03938
;WIDTH:0.429684
G1 X126.373 Y121.14 E.02014
G1 X126.446 Y121.938 E.02449
;WIDTH:0.370556
G1 X126.459 Y122.675 E.01906
;WIDTH:0.335731
G1 X126.377 Y123.42 E.01735
G1 X126.151 Y124.136 E.01736
G1 X125.79 Y124.794 E.01735
G1 X125.307 Y125.368 E.01735
G1 X124.722 Y125.838 E.01735
G1 X124.056 Y126.184 E.01735
G1 X123.336 Y126.394 E.01735
;WIDTH:0.337907
G1 X122.603 Y126.463 E.01716
;WIDTH:0.374024
G1 X121.896 Y126.445 E.0185
;WIDTH:0.402744
G1 X121.555 Y126.411 E.00972
;WIDTH:0.431464
G1 X120.684 Y126.338 E.02684
;WIDTH:0.419999
G1 X120.176 Y126.324 E.01514
G1 X108.755 Y126.323 E.34018
G1 X107.951 Y126.341 E.02396
;WIDTH:0.43205
G1 X106.847 Y126.412 E.034
;WIDTH:0.400871
G1 X106.483 Y126.445 E.01034
;WIDTH:0.369691
G1 X105.761 Y126.462 E.01865
;WIDTH:0.384518
G1 X104.948 Y126.439 E.02194
;WIDTH:0.419999
G1 X103.981 Y126.345 E.02894
G1 X103.474 Y126.325 E.01511
G1 X97.889 Y126.322 E.16637
G1 X97.889 Y122.3 E.1198
G1 X97.851 Y122.206 E.003
;WIPE_START
G1 X97.7 Y122.111 E-.1427
G1 X96.879 Y122.111 E-.6573
;WIPE_END
G1 Z.6 F9000
G1 X125.579 Y124.584 Z.6
G1 Z.2
G1 E.8 F1800
;WIDTH:0.33573
G1 F900
G1 X125.142 Y125.122 E.01603
G1 X124.608 Y125.563 E.01603
G1 X123.998 Y125.893 E.01603
;WIDTH:0.336437
G1 X123.335 Y126.097 E.01607
;WIDTH:0.33573
G1 X122.646 Y126.167 E.01603
;WIDTH:0.370557
G1 X121.954 Y126.119 E.01795
;WIDTH:0.401011
G1 X121.615 Y126.057 E.00976
;WIDTH:0.431464
G1 X121.275 Y125.995 E.01059
G1 X120.799 Y125.781 E.01602
;WIDTH:0.419999
G1 X120.579 Y125.676 E.00729
G1 X120.045 Y125.246 E.02039
G1 X119.584 Y124.69 E.02153
G1 X119.241 Y124.056 E.02148
G1 X119.028 Y123.367 E.02148
G1 X118.953 Y122.65 E.02148
G1 X119.021 Y121.932 E.02148
G1 X119.226 Y121.241 E.02148
G1 X119.563 Y120.604 E.02148
G1 X120.018 Y120.044 E.02148
G1 X120.573 Y119.584 E.02148
G1 X121.207 Y119.241 E.02148
G1 X121.896 Y119.028 E.02148
G1 X122.613 Y118.953 E.02148
G1 X123.331 Y119.021 E.02148
G1 X124.022 Y119.226 E.02148
G1 X124.66 Y119.563 E.02148
G1 X125.219 Y120.018 E.02148
G1 X125.676 Y120.579 E.02153
;WIDTH:0.429684
G1 X125.983 Y121.241 E.02229
G1 X126.05 Y121.587 E.01078
;WIDTH:0.401855
G1 X126.118 Y121.933 E.01
;WIDTH:0.374025
G1 X126.168 Y122.617 E.01794
;WIDTH:0.337907
G1 X126.102 Y123.307 E.01616
;WIDTH:0.33573
G1 X125.904 Y123.971 E.01603
G1 X125.598 Y124.548 E.01511
;WIPE_START
G1 X125.142 Y125.122 E-.58586
G1 X124.936 Y125.292 E-.21414
;WIPE_END
G1 Z.6 F9000
G1 X104.433 Y119.268 Z.6
G1 Z.2
G1 E.8 F1800
;WIDTH:0.432017
G1 F900
G1 X104.762 Y119.207 E.01028
;WIDTH:0.402051
G1 X105.091 Y119.146 E.00949
;WIDTH:0.372084
G1 X105.775 Y119.095 E.01784
;WIDTH:0.370359
G1 X106.467 Y119.144 E.01794
;WIDTH:0.399169
G1 X106.806 Y119.207 E.00971
;WIDTH:0.427979
G1 X107.145 Y119.27 E.01049
G1 X107.801 Y119.562 E.02184
;WIDTH:0.419999
G1 X108.376 Y120.017 E.02182
G1 X108.837 Y120.573 E.02153
G1 X109.181 Y121.207 E.02148
G1 X109.393 Y121.896 E.02148
G1 X109.468 Y122.613 E.02148
G1 X109.401 Y123.331 E.02148
G1 X109.195 Y124.022 E.02148
G1 X108.858 Y124.66 E.02148
G1 X108.403 Y125.219 E.02148
G1 X107.843 Y125.676 E.02153
;WIDTH:0.427598
G1 X107.293 Y125.931 E.01841
G1 X106.848 Y126.055 E.01404
;WIDTH:0.414554
G1 X106.326 Y126.112 E.01542
;WIDTH:0.375985
G1 X105.804 Y126.168 E.01382
;WIDTH:0.370472
G1 X105.112 Y126.119 E.01795
;WIDTH:0.398908
G1 X104.773 Y126.056 E.0097
;WIDTH:0.427344
G1 X104.434 Y125.993 E.01048
G1 X103.778 Y125.701 E.0218
;WIDTH:0.419999
G1 X103.203 Y125.246 E.02182
G1 X102.742 Y124.69 E.02153
G1 X102.398 Y124.056 E.02148
G1 X102.217 Y123.47 E.01829
G1 X102.111 Y122.65 E.02461
G1 X102.178 Y121.932 E.02148
G1 X102.384 Y121.241 E.02148
G1 X102.721 Y120.604 E.02148
G1 X103.176 Y120.044 E.02148
G1 X103.736 Y119.587 E.02153
;WIDTH:0.426574
G1 X104.26 Y119.344 E.01751
;WIDTH:0.432017
G1 X104.397 Y119.284 E.00457
;WIPE_START
G1 X104.762 Y119.207 E-.29881
G1 X105.091 Y119.146 E-.26757
G1 X105.382 Y119.125 E-.23362
;WIPE_END
G1 Z.6 F9000
G1 X96.903 Y118.886 Z.6
G1 Z.2
G1 E.8 F1800
;WIDTH:0.419999
G1 F900
G1 X96.848 Y118.753 E.0043
G1 X96.848 Y97.036 E.64686
G1 X96.903 Y96.903 E.0043
G1 X97.036 Y96.848 E.0043
G1 X118.753 Y96.848 E.64686
G1 X118.904 Y96.923 E.00502
G1 X118.942 Y97.036 E.00355
G1 X118.942 Y118.753 E.64686
G1 X118.873 Y118.899 E.0048
G1 X118.753 Y118.942 E.00379
G1 X108.144 Y118.938 E.31601
G1 X107.637 Y118.92 E.01511
M73 P5 R25
G1 X106.646 Y118.825 E.02966
;WIDTH:0.386207
G1 X105.818 Y118.802 E.02246
;WIDTH:0.368686
G1 X105.096 Y118.82 E.01859
;WIDTH:0.400352
G1 X104.732 Y118.852 E.01032
;WIDTH:0.432017
G1 X103.629 Y118.922 E.03396
;WIDTH:0.419999
G1 X102.824 Y118.94 E.02399
G1 X97.036 Y118.942 E.17239
G1 X96.94 Y118.902 E.00311
;WIPE_START
G1 X96.848 Y118.753 E-.13991
G1 X96.848 Y117.928 E-.66009
;WIPE_END
G1 Z.6 F9000
G1 X125.831 Y94.938
G1 Z.6
G1 Z.2
G1 E.8 F1800
;TYPE:Bottom surface
;WIDTH:0.423413
G1 F2100
G1 X125.232 Y94.338 E.0255
G1 X124.693 Y94.338 E.01617
G1 X125.662 Y95.307 E.04116
G1 X125.662 Y95.845 E.01617
G1 X124.155 Y94.338 E.06403
G1 X123.617 Y94.338 E.01617
G1 X125.662 Y96.383 E.0869
G1 X125.662 Y96.921 E.01617
G1 X123.079 Y94.338 E.10977
G1 X122.541 Y94.338 E.01617
G1 X125.662 Y97.459 E.13265
G1 X125.662 Y97.997 E.01617
G1 X122.003 Y94.338 E.15552
G1 X121.465 Y94.338 E.01617
G1 X125.662 Y98.535 E.17839
G1 X125.662 Y99.073 E.01617
G1 X120.927 Y94.338 E.20126
G1 X120.389 Y94.338 E.01617
G1 X125.662 Y99.611 E.22413
G1 X125.662 Y100.149 E.01617
G1 X119.851 Y94.338 E.24701
G1 X119.312 Y94.338 E.01617
G1 X125.662 Y100.688 E.26988
G1 X125.662 Y101.226 E.01617
G1 X118.774 Y94.338 E.29275
G1 X118.236 Y94.338 E.01617
G1 X125.662 Y101.764 E.31562
G1 X125.662 Y102.302 E.01617
G1 X117.698 Y94.338 E.3385
G1 X117.16 Y94.338 E.01617
G1 X125.662 Y102.84 E.36137
G1 X125.662 Y103.378 E.01617
G1 X119.601 Y97.318 E.2576
G1 X119.601 Y97.856 E.01617
G1 X125.662 Y103.916 E.2576
G1 X125.662 Y104.454 E.01617
G1 X119.601 Y98.394 E.2576
G1 X119.601 Y98.932 E.01617
G1 X125.662 Y104.992 E.2576
G1 X125.662 Y105.53 E.01617
G1 X119.601 Y99.47 E.2576
G1 X119.601 Y100.008 E.01617
G1 X125.662 Y106.069 E.2576
G1 X125.662 Y106.607 E.01617
G1 X119.601 Y100.546 E.2576
G1 X119.601 Y101.084 E.01617
G1 X125.662 Y107.145 E.2576
G1 X125.662 Y107.683 E.01617
G1 X119.601 Y101.622 E.2576
G1 X119.601 Y102.16 E.01617
G1 X125.662 Y108.221 E.2576
G1 X125.662 Y108.759 E.01617
G1 X119.601 Y102.699 E.25761
G1 X119.601 Y103.237 E.01617
G1 X125.662 Y109.297 E.25761
G1 X125.662 Y109.835 E.01617
G1 X119.601 Y103.775 E.25761
G1 X119.601 Y104.313 E.01617
G1 X125.662 Y110.373 E.25761
G1 X125.662 Y110.911 E.01617
G1 X119.601 Y104.851 E.25761
G1 X119.601 Y105.389 E.01617
G1 X125.662 Y111.449 E.25761
G1 X125.662 Y111.988 E.01617
G1 X119.601 Y105.927 E.25761
G1 X119.601 Y106.465 E.01617
G1 X125.662 Y112.526 E.25761
G1 X125.662 Y113.064 E.01617
G1 X119.601 Y107.003 E.25761
G1 X119.601 Y107.541 E.01617
G1 X125.662 Y113.602 E.25761
G1 X125.662 Y114.14 E.01617
G1 X119.601 Y108.079 E.25761
G1 X119.601 Y108.617 E.01617
G1 X125.662 Y114.678 E.25762
G1 X125.662 Y115.216 E.01617
G1 X119.601 Y109.155 E.25762
G1 X119.601 Y109.694 E.01617
G1 X125.662 Y115.754 E.25762
G1 X125.662 Y116.292 E.01617
G1 X119.601 Y110.232 E.25762
G1 X119.601 Y110.77 E.01617
G1 X125.662 Y116.83 E.25762
G1 X125.662 Y117.369 E.01617
G1 X119.601 Y111.308 E.25762
G1 X119.601 Y111.846 E.01617
G1 X125.662 Y117.907 E.25762
G1 X125.662 Y118.445 E.01617
G1 X119.601 Y112.384 E.25762
G1 X119.601 Y112.922 E.01617
G1 X125.662 Y118.983 E.25762
G1 X125.665 Y119.525 E.01629
G1 X119.601 Y113.46 E.25779
G1 X119.601 Y113.998 E.01617
G1 X124.191 Y118.589 E.19512
G1 X123.439 Y118.375 E.0235
M73 P6 R25
G1 X119.601 Y114.536 E.16316
G1 X119.601 Y115.074 E.01617
G1 X122.846 Y118.319 E.13793
G1 X122.556 Y118.296 E.00874
G1 X122.312 Y118.324 E.00737
G1 X119.601 Y115.612 E.11527
G1 X119.601 Y116.15 E.01617
G1 X121.83 Y118.38 E.09478
G1 X121.712 Y118.394 E.00359
G1 X121.405 Y118.493 E.00968
G1 X119.601 Y116.689 E.07669
G1 X119.601 Y117.227 E.01617
G1 X120.998 Y118.624 E.0594
G1 X120.903 Y118.655 E.00301
G1 X120.637 Y118.801 E.00913
G1 X119.601 Y117.765 E.04403
G1 X119.601 Y118.303 E.01617
G1 X120.289 Y118.991 E.02926
G1 X120.19 Y119.045 E.0034
G1 X119.981 Y119.221 E.0082
G1 X119.591 Y118.832 E.01657
G1 X119.442 Y119.22 E.01251
G1 X119.689 Y119.468 E.01054
G1 X119.518 Y119.612 E.00673
G1 X119.418 Y119.735 E.00475
G1 X119.15 Y119.466 E.0114
G1 X118.808 Y119.601 E.01104
G1 X118.746 Y119.601 E.00186
G1 X119.176 Y120.03 E.01827
G1 X119.045 Y120.19 E.00621
G1 X118.957 Y120.35 E.00547
G1 X118.208 Y119.6 E.03187
G1 X117.67 Y119.6 E.01618
G1 X118.767 Y120.698 E.04665
G1 X118.592 Y121.061 E.01211
G1 X117.131 Y119.6 E.06208
G1 X116.593 Y119.6 E.01618
G1 X118.473 Y121.48 E.07989
G1 X118.36 Y121.905 E.01324
G1 X116.055 Y119.6 E.09799
G1 X115.517 Y119.6 E.01618
G1 X118.314 Y122.397 E.11891
G1 X118.292 Y122.632 E.00707
G1 X118.321 Y122.943 E.00939
G1 X114.978 Y119.6 E.1421
G1 X114.44 Y119.6 E.01618
G1 X118.395 Y123.554 E.1681
G1 X118.651 Y124.348 E.02508
G1 X113.902 Y119.599 E.20186
G1 X113.364 Y119.599 E.01618
G1 X119.429 Y125.664 E.25779
G1 X118.89 Y125.664 E.01617
G1 X112.826 Y119.599 E.2578
G1 X112.287 Y119.599 E.01618
G1 X118.352 Y125.664 E.2578
G1 X117.814 Y125.664 E.01617
G1 X111.749 Y119.599 E.2578
G1 X111.211 Y119.599 E.01618
G1 X117.276 Y125.664 E.25781
G1 X116.738 Y125.664 E.01617
G1 X110.673 Y119.599 E.25781
G1 X110.134 Y119.599 E.01618
G1 X116.2 Y125.664 E.25781
G1 X115.662 Y125.664 E.01617
G1 X109.596 Y119.598 E.25782
G1 X109.058 Y119.598 E.01618
G1 X115.123 Y125.664 E.25782
G1 X114.585 Y125.664 E.01617
G1 X109.693 Y120.772 E.20794
G1 X109.766 Y120.903 E.0045
G1 X109.995 Y121.611 E.02238
G1 X114.047 Y125.664 E.17225
G1 X113.509 Y125.664 E.01617
G1 X110.093 Y122.247 E.14521
G1 X110.129 Y122.632 E.0116
G1 X110.113 Y122.805 E.00524
G1 X112.971 Y125.664 E.1215
G1 X112.433 Y125.664 E.01617
G1 X110.066 Y123.297 E.10058
G1 X110.026 Y123.555 E.00785
G1 X109.968 Y123.736 E.00572
G1 X111.895 Y125.664 E.08191
G1 X111.356 Y125.663 E.01617
G1 X109.836 Y124.143 E.06462
G1 X109.766 Y124.361 E.00686
G1 X109.677 Y124.522 E.00554
G1 X110.818 Y125.663 E.04853
G1 X110.28 Y125.663 E.01617
G1 X109.484 Y124.867 E.03384
G1 X109.353 Y125.103 E.0081
G1 X109.275 Y125.197 E.00366
G1 X109.742 Y125.663 E.01983
G1 X109.204 Y125.663 E.01617
G1 X108.912 Y125.372 E.0124
;WIPE_START
G1 X109.204 Y125.663 E-.32995
G1 X109.742 Y125.663 E-.43052
G1 X109.707 Y125.628 E-.03954
;WIPE_END
G1 Z.6 F9000
G1 X102.769 Y119.767 Z.6
G1 Z.2
G1 E.8 F1800
G1 F2100
G1 X102.603 Y119.6 E.00707
G1 X102.065 Y119.6 E.01617
G1 X102.406 Y119.942 E.0145
G1 X102.226 Y120.16 E.00851
G1 X102.176 Y120.25 E.00308
G1 X101.527 Y119.601 E.02761
G1 X100.989 Y119.601 E.01617
G1 X101.984 Y120.596 E.04229
G1 X101.795 Y120.945 E.01194
G1 X100.451 Y119.601 E.05716
